X: 1
T:Humors of Whiskey, The
M:9/8
L:1/8
R:Slip Jig
K:Bm
fge fBB fBB | fge fBB fga | gag fBB fBB | (3Bcd e efd cBA |
!fge fBB fBB | fge fBB fga | gag fBB fBB | agf efd cBA |:
!d2e ~f3 ecA | d2e ~f3 gfe | d2e ~f3 efg | agf efd cBA :|
